X:256
T:Steirer (54.)
C:traditionell
A:Salzkammergut
S:MIDI erhalten von Christian Amon. Nach einer kopie im besitz von Johann Stoeckl eines manuscriptes. Stoeckl(zitiert von Amon): "diese sammlung wurde 1935 im hause der familie Hohenlohe-Schillingfuerst gefunden. Sie wurde von einem der beiden brueder Steinegger 1866 verfasst. Die originale sind im Ausseer Kammerhofmuseum".
M:3/4
L:1/8
K:G
V:1
gB db g2 | ac ec' ac' | d2 fA df | gB db g2 |\
gB db g2 | ac ec' ac' |d2 fA df | g4 z2 |*
V:2
bd gd' b2 | c'e ge' c'e' |f2 ac fa |bd gd' b2 |\
bd gd' b2 | c'e ge' c'e' |f2 ac fa | b4 z2 |*
